.vuepress/public/logo.svg

<?xml version="1.0" encoding="UTF-8" standalone="no"?>
<svg
   xmlns:dc="http://purl.org/dc/elements/1.1/"
   xmlns:cc="http://creativecommons.org/ns#"
   xmlns:rdf="http://www.w3.org/1999/02/22-rdf-syntax-ns#"
   xmlns:svg="http://www.w3.org/2000/svg"
   xmlns="http://www.w3.org/2000/svg"
   xmlns:sodipodi="http://sodipodi.sourceforge.net/DTD/sodipodi-0.dtd"
   xmlns:inkscape="http://www.inkscape.org/namespaces/inkscape"
   inkscape:version="1.0 (4035a4f, 2020-05-01)"
   sodipodi:docname="Icon-v3_trans.svg"
   id="svg858"
   version="1.1"
   fill="none"
   viewBox="0 0 110 110"
   height="110"
   width="110">
  <metadata
     id="metadata864">
    <rdf:RDF>
      <cc:Work
         rdf:about="">
        <dc:format>image/svg+xml</dc:format>
        <dc:type
           rdf:resource="http://purl.org/dc/dcmitype/StillImage" />
        <dc:title></dc:title>
      </cc:Work>
    </rdf:RDF>
  </metadata>
  <defs
     id="defs862" />
  <sodipodi:namedview
     inkscape:current-layer="svg858"
     inkscape:window-maximized="1"
     inkscape:window-y="23"
     inkscape:window-x="0"
     inkscape:cy="70.9375"
     inkscape:cx="50.3125"
     inkscape:zoom="6.4"
     showgrid="false"
     id="namedview860"
     inkscape:window-height="1075"
     inkscape:window-width="1792"
     inkscape:pageshadow="2"
     inkscape:pageopacity="0"
     guidetolerance="10"
     gridtolerance="10"
     objecttolerance="10"
     borderopacity="1"
     bordercolor="#666666"
     pagecolor="#ffffff" />
  <rect
     inkscape:export-ydpi="4571.4302"
     inkscape:export-xdpi="4571.4302"
     inkscape:export-filename="/Users/jishnu/git/IndicKeyboard/IndicKeyboard/graphic-assets/icon_large.png"
     id="rect837"
     fill="#2F9B75"
     rx="6"
     height="42"
     width="42"
     y="35"
     x="35" />
  <path
     inkscape:export-ydpi="4571.4302"
     inkscape:export-xdpi="4571.4302"
     inkscape:export-filename="/Users/jishnu/git/IndicKeyboard/IndicKeyboard/graphic-assets/icon_large.png"
     id="path839"
     fill="black"
     d="M38.3123 35.6342C36.3481 36.62 35 38.6525 35 41V71C35 74.3137 37.6863 77 41 77H71C72.8304 77 74.4694 76.1803 75.57 74.888L38.3123 35.6342Z"
     clip-rule="evenodd"
     fill-rule="evenodd"
     opacity="0.2" />
  <rect
     inkscape:export-ydpi="4571.4302"
     inkscape:export-xdpi="4571.4302"
     inkscape:export-filename="/Users/jishnu/git/IndicKeyboard/IndicKeyboard/graphic-assets/icon_large.png"
     id="rect841"
     fill="#5AC09C"
     rx="6"
     height="36"
     width="36"
     y="33"
     x="37" />
  <path
     inkscape:export-ydpi="4571.4302"
     inkscape:export-xdpi="4571.4302"
     inkscape:export-filename="/Users/jishnu/git/IndicKeyboard/IndicKeyboard/graphic-assets/icon_large.png"
     id="path843"
     fill="#2F9B75"
     d="M63.5 42L72 63.5V36L39.5 35.5L63.5 42Z"
     opacity="0.6" />
  <mask
     height="36"
     width="36"
     y="33"
     x="37"
     maskUnits="userSpaceOnUse"
     mask-type="alpha"
     id="mask0">
    <rect
       id="rect845"
       fill="#C4C4C4"
       rx="6"
       height="36"
       width="36"
       y="33"
       x="37" />
  </mask>
  <g
     inkscape:export-ydpi="4571.4302"
     inkscape:export-xdpi="4571.4302"
     inkscape:export-filename="/Users/jishnu/git/IndicKeyboard/IndicKeyboard/graphic-assets/icon_large.png"
     id="g856"
     mask="url(#mask0)">
    <path
       id="path848"
       fill="white"
       d="M35.6168 39.4261C35.2056 38.5963 35 37.7183 35 36.792C35 35.6727 35.4208 34.7609 36.2624 34.0565C37.104 33.3522 38.1655 33 39.4471 33C40.4799 33 41.3311 33.2074 42.0005 33.6223C42.67 34.0372 43.2486 34.6789 43.7363 35.5473C44.7118 33.8491 46.175 33 48.126 33C49.6753 33 50.9281 33.5741 51.8845 34.7223C52.8504 35.8609 53.3333 37.3902 53.3333 39.3103C53.3333 40.3717 53.166 41.3655 52.8312 42.2918C52.4965 43.2084 51.9944 44.0527 51.325 44.8246C51.7936 45.7992 52.0279 46.7978 52.0279 47.8206C52.0279 48.8819 51.8558 49.8372 51.5115 50.6863L49.3597 50.2376C49.637 49.5525 49.7757 48.7034 49.7757 47.6903C49.7757 47.1886 49.7087 46.711 49.5749 46.2575C48.6472 46.9039 47.6335 47.3864 46.5336 47.7048C45.4338 48.0232 44.2432 48.1824 42.9617 48.1824C40.9724 48.1824 39.4614 47.8206 38.4285 47.0969C37.3957 46.3636 36.8792 45.2974 36.8792 43.8983C36.8792 42.6247 37.3861 41.6309 38.3998 40.9169C39.4136 40.1932 40.8529 39.8314 42.7178 39.8314C44.2193 39.8314 45.5773 40.0822 46.7919 40.584C48.0064 41.0857 49.0728 41.8383 49.9909 42.8418C50.2969 42.369 50.5264 41.8528 50.6794 41.2932C50.8325 40.7335 50.909 40.1256 50.909 39.4695C50.909 38.109 50.6555 37.0814 50.1487 36.3867C49.6418 35.6824 48.9006 35.3302 47.9251 35.3302C47.1601 35.3302 46.505 35.5955 45.9598 36.1262C45.4243 36.6569 45.0656 37.4095 44.8839 38.384H42.603C42.2396 36.2613 41.2211 35.1999 39.5475 35.1999C38.8589 35.1999 38.3281 35.364 37.9551 35.692C37.5917 36.0104 37.41 36.4543 37.41 37.0236C37.41 37.6314 37.5583 38.2152 37.8547 38.7748L35.6168 39.4261ZM48.5707 44.376C47.9108 43.6137 47.074 43.0396 46.0603 42.6536C45.0561 42.258 43.9419 42.0602 42.7178 42.0602C41.5989 42.0602 40.7477 42.2291 40.1643 42.5668C39.5905 42.8949 39.3036 43.3387 39.3036 43.8983C39.3036 44.5931 39.624 45.1093 40.2647 45.447C40.9151 45.7847 41.8953 45.9535 43.2055 45.9535C44.3053 45.9535 45.2999 45.8233 46.1894 45.5628C47.0883 45.3022 47.8821 44.9066 48.5707 44.376Z" />
    <path
       id="path850"
       fill="white"
       d="M57.3333 50.6863V33H75.8824V35.2986H69.6681V50.6863H66.9826V35.2986H60.0189V50.6863H57.3333ZM63.5163 43.8544C62.9543 43.8544 62.4754 43.6628 62.0799 43.2797C61.7052 42.8967 61.5178 42.4071 61.5178 41.8112C61.5178 41.2366 61.7052 40.7577 62.0799 40.3746C62.4546 39.9915 62.9334 39.8 63.5163 39.8C64.0784 39.8 64.5469 39.9915 64.9216 40.3746C65.2963 40.7577 65.4837 41.2366 65.4837 41.8112C65.4837 42.4071 65.2963 42.8967 64.9216 43.2797C64.5469 43.6628 64.0784 43.8544 63.5163 43.8544ZM73.1344 43.8544C72.5723 43.8544 72.0934 43.6628 71.6979 43.2797C71.3232 42.8967 71.1358 42.4071 71.1358 41.8112C71.1358 41.2366 71.3232 40.7577 71.6979 40.3746C72.0726 39.9915 72.5514 39.8 73.1344 39.8C73.6964 39.8 74.1649 39.9915 74.5396 40.3746C74.9143 40.7577 75.1017 41.2366 75.1017 41.8112C75.1017 42.4071 74.9143 42.8967 74.5396 43.2797C74.1649 43.6628 73.6964 43.8544 73.1344 43.8544Z" />
    <path
       id="path852"
       fill="white"
       d="M42.6049 67.2427C40.9058 67.2427 39.4443 66.6642 38.2202 65.5071C37.0144 64.3317 36.2745 62.688 36.0005 60.5759C37.462 60.3555 38.5673 59.9515 39.3164 59.3638C40.0837 58.776 40.4674 58.0873 40.4674 57.2976C40.4674 56.3426 40.1842 55.5253 39.6178 54.8458H34V53H52.3333V54.8458H49.1819V70.6863H47.0443V65.3418C46.1126 66.6091 44.6328 67.2427 42.6049 67.2427ZM42.7967 65.3969C44.0756 65.3969 45.0987 65.048 45.866 64.3501C46.6516 63.6338 47.0443 62.6788 47.0443 61.485V54.8458H41.9198C42.3765 55.5437 42.6049 56.3977 42.6049 57.4078C42.6049 59.575 41.2529 61.081 38.5491 61.9258C38.7683 62.9359 39.2616 63.7715 40.0289 64.4327C40.7962 65.0755 41.7188 65.3969 42.7967 65.3969Z" />
    <path
       id="path854"
       fill="white"
       d="M64.5544 62.1675C64.2818 62.1487 64.0045 62.1393 63.7224 62.1393C62.5755 62.1393 61.6542 62.4167 60.9586 62.9714C60.2723 63.5262 59.9292 64.3019 59.9292 65.2986C59.9292 67.48 61.3534 68.5707 64.2019 68.5707C65.9222 68.5707 67.4405 68.157 68.7566 67.3295C70.0821 66.5021 71.1115 65.3738 71.8448 63.9446C72.5781 62.506 72.9447 61.0721 72.9447 59.6429C72.9447 58.1573 72.7191 57.029 72.2678 56.258C71.8166 55.4776 71.1585 55.0874 70.2937 55.0874C69.6544 55.0874 69.1468 55.2848 68.7707 55.6797C68.4041 56.0652 68.2208 56.5354 68.2208 57.0901C68.2208 58.0962 68.5592 58.8719 69.2361 59.4173C69.9223 59.9626 70.9376 60.3669 72.2819 60.6302L71.5628 62.7035C67.8118 61.7068 65.9363 59.878 65.9363 57.2171C65.9363 55.9759 66.3124 54.9651 67.0645 54.1847C67.8259 53.3949 68.8553 53 70.1526 53C71.7132 53 72.9635 53.5736 73.9036 54.7207C74.8437 55.8678 75.3137 57.5085 75.3137 59.6429C75.3137 61.467 74.8578 63.2535 73.9459 65.0024C73.0434 66.7419 71.7508 68.1241 70.068 69.149C68.3853 70.1738 66.4487 70.6863 64.2583 70.6863C62.1525 70.6863 60.5167 70.202 59.351 69.2336C58.1853 68.2651 57.6025 66.9628 57.6025 65.3268C57.6025 63.8694 58.0913 62.6565 59.069 61.688C58.1383 61.0674 57.4473 60.381 56.9961 59.6288C56.5543 58.8766 56.3333 58.0257 56.3333 57.076C56.3333 55.9007 56.7658 54.9275 57.6307 54.1565C58.5049 53.3855 59.6754 53 61.1419 53C62.0914 53 62.9892 53.1034 63.8353 53.3103L63.4404 55.3836C62.6507 55.2049 61.9692 55.1156 61.3957 55.1156C60.5308 55.1156 59.8587 55.3083 59.3792 55.6938C58.8998 56.0699 58.6601 56.5871 58.6601 57.2453C58.6601 57.9693 58.8575 58.5851 59.2523 59.0929C59.6566 59.6006 60.2582 60.0566 61.0573 60.461C61.847 60.1695 62.7259 60.0237 63.6942 60.0237C63.9293 60.0237 64.3053 60.0425 64.8223 60.0802L64.5544 62.1675Z" />
  </g>
</svg>

<svg xmlns="http://www.w3.org/2000/svg" fill="none" viewBox="0 0 110 110"><rect fill="#2F9B75" rx="6" height="42" width="42" y="35" x="35"/><path fill="#000" d="M38.312 35.634A6 6 0 0035 41v30a6 6 0 006 6h30c1.83 0 3.47-.82 4.57-2.112L38.312 35.634z" clip-rule="evenodd" fill-rule="evenodd" opacity=".2"/><rect fill="#5AC09C" rx="6" height="36" width="36" y="33" x="37"/><path fill="#2F9B75" d="M63.5 42L72 63.5V36l-32.5-.5 24 6.5z" opacity=".6"/><mask height="36" width="36" y="33" x="37" maskUnits="userSpaceOnUse" id="a"><rect fill="#C4C4C4" rx="6" height="36" width="36" y="33" x="37"/></mask><g mask="url(#a)" fill="#fff"><path d="M35.617 39.426A5.855 5.855 0 0135 36.792c0-1.12.42-2.031 1.262-2.736.842-.704 1.904-1.056 3.185-1.056 1.033 0 1.884.207 2.553.622.67.415 1.249 1.057 1.736 1.925.976-1.698 2.439-2.547 4.39-2.547 1.55 0 2.802.574 3.759 1.722.965 1.139 1.448 2.668 1.448 4.588a8.705 8.705 0 01-.502 2.982 8.07 8.07 0 01-1.506 2.533c.469.974.703 1.973.703 2.996 0 1.06-.172 2.016-.517 2.865l-2.151-.448c.277-.685.416-1.535.416-2.548 0-.501-.067-.979-.201-1.432a10.285 10.285 0 01-3.041 1.447c-1.1.318-2.29.477-3.572.477-1.99 0-3.5-.361-4.534-1.085-1.032-.733-1.549-1.8-1.549-3.199 0-1.273.507-2.267 1.52-2.981 1.015-.724 2.454-1.086 4.319-1.086 1.501 0 2.86.251 4.074.753a8.906 8.906 0 013.199 2.258c.306-.473.535-.99.688-1.549.154-.56.23-1.167.23-1.824 0-1.36-.253-2.388-.76-3.082-.507-.705-1.248-1.057-2.224-1.057-.765 0-1.42.266-1.965.796-.536.53-.894 1.284-1.076 2.258h-2.281c-.363-2.123-1.382-3.184-3.056-3.184-.688 0-1.219.164-1.592.492-.363.318-.545.762-.545 1.332 0 .607.148 1.191.445 1.75l-2.238.652zm12.954 4.95c-.66-.762-1.497-1.336-2.51-1.722-1.005-.396-2.12-.594-3.343-.594-1.12 0-1.97.17-2.554.507-.574.328-.86.772-.86 1.331 0 .695.32 1.211.96 1.549.651.338 1.631.506 2.941.506 1.1 0 2.095-.13 2.984-.39a7.095 7.095 0 002.382-1.187zM57.333 50.686V33h18.55v2.299h-6.215v15.387h-2.685V35.3h-6.964v15.387h-2.686zm6.183-6.832a1.99 1.99 0 01-1.436-.574c-.375-.383-.562-.873-.562-1.469 0-.574.187-1.053.562-1.436.375-.383.853-.575 1.436-.575.562 0 1.03.192 1.406.575.374.383.562.862.562 1.436 0 .596-.188 1.086-.562 1.469-.375.383-.844.574-1.406.574zm9.618 0a1.99 1.99 0 01-1.436-.574c-.375-.383-.562-.873-.562-1.469 0-.574.187-1.053.562-1.436.375-.383.853-.575 1.436-.575.562 0 1.03.192 1.406.575.374.383.562.862.562 1.436 0 .596-.188 1.086-.562 1.469-.375.383-.844.574-1.406.574zM42.605 67.243c-1.7 0-3.16-.579-4.385-1.736-1.206-1.175-1.945-2.819-2.22-4.931 1.462-.22 2.567-.624 3.316-1.212.768-.588 1.151-1.277 1.151-2.066 0-.955-.283-1.773-.85-2.452H34V53h18.333v1.846h-3.151v15.84h-2.138v-5.344c-.931 1.267-2.411 1.9-4.44 1.9zm.192-1.846c1.279 0 2.302-.349 3.069-1.047.786-.716 1.178-1.671 1.178-2.865v-6.64H41.92c.456.699.685 1.553.685 2.563 0 2.167-1.352 3.673-4.056 4.518a4.472 4.472 0 001.48 2.507c.767.642 1.69.964 2.768.964zM64.554 62.167a12.09 12.09 0 00-.832-.028c-1.147 0-2.068.278-2.763.832-.687.555-1.03 1.33-1.03 2.328 0 2.181 1.424 3.272 4.273 3.272 1.72 0 3.239-.414 4.555-1.242 1.325-.827 2.355-1.955 3.088-3.384.733-1.439 1.1-2.873 1.1-4.302 0-1.486-.226-2.614-.677-3.385-.451-.78-1.11-1.17-1.974-1.17-.64 0-1.147.197-1.523.592a1.97 1.97 0 00-.55 1.41c0 1.006.338 1.782 1.015 2.327.686.546 1.702.95 3.046 1.213l-.72 2.073c-3.75-.996-5.626-2.825-5.626-5.486 0-1.241.376-2.252 1.128-3.032.762-.79 1.791-1.185 3.089-1.185 1.56 0 2.81.574 3.75 1.72.94 1.148 1.41 2.788 1.41 4.923 0 1.824-.455 3.61-1.367 5.36a10.353 10.353 0 01-3.878 4.146c-1.683 1.025-3.62 1.537-5.81 1.537-2.105 0-3.741-.484-4.907-1.452-1.166-.969-1.748-2.271-1.748-3.907 0-1.458.488-2.67 1.466-3.639-.93-.62-1.622-1.307-2.073-2.06-.442-.751-.663-1.602-.663-2.552 0-1.175.433-2.148 1.298-2.92.874-.77 2.044-1.156 3.51-1.156.95 0 1.848.103 2.694.31l-.395 2.074c-.79-.18-1.47-.268-2.044-.268-.865 0-1.537.192-2.017.578-.48.376-.719.893-.719 1.551 0 .724.198 1.34.592 1.848.405.508 1.006.964 1.805 1.368.79-.291 1.669-.437 2.637-.437.235 0 .611.018 1.128.056l-.268 2.087z"/></g></svg>
